X:632
T:Girls of Castlebar, The
T:Maids of Caslebar, The
R:reel
D:Frankie Gavin: Frankie Goes to Town
D:Shaskeen: 25th Silver Jubilee Collection
Z:id:hn-reel-597
M:C|
K:D
dD~D2 EDCE|D2FA BAFA|dDcD BDAF|DEFD EDB,D|
FD~D2 EDB,E|DEFA BAFA|dgfe dBAG|F2EF D4:|
|:a2^ga fd~d2|fdad fddf|gebe geef|gebe ge~e2|
fdad bdad|fgec dBcA|Bcde fdec|dBAG FDD2:|
